packages/wallets/src/public/images/ic-cashier-transfer.svg

<svg width="16" height="16" viewBox="0 0 16 16" fill="none" xmlns="http://www.w3.org/2000/svg">
<g clip-path="url(#clip0_714_1471)">
<path d="M11 10.2929L14.7929 6.50003L11 2.70713V4.50003C11 4.77617 10.7761 5.00003 10.5 5.00003H7.5C7.22386 5.00003 7 4.77617 7 4.50003C7 4.22388 7.22386 4.00003 7.5 4.00003H10V1.50003C10 1.05457 10.5386 0.83149 10.8536 1.14647L15.8536 6.14647C16.0488 6.34173 16.0488 6.65832 15.8536 6.85358L10.8536 11.8536C10.7631 11.9441 10.6381 12 10.5 12C10.2239 12 10 11.7762 10 11.5V8.00003H5.5C5.22386 8.00003 5 7.77617 5 7.50003V5.70713L1.20711 9.50003L5 13.2929V11.5C5 11.2239 5.22386 11 5.5 11H8.5C8.77614 11 9 11.2239 9 11.5C9 11.7762 8.77614 12 8.5 12H6V14.5C6 14.9455 5.46143 15.1686 5.14645 14.8536L0.146447 9.85358C-0.0488155 9.65832 -0.0488155 9.34173 0.146447 9.14647L5.14645 4.14647C5.46143 3.83149 6 4.05457 6 4.50003V7.00003H10.5C10.7761 7.00003 11 7.22388 11 7.50003V10.2929Z" fill="#333333"/>
</g>
<defs>
<clipPath id="clip0_714_1471">
<rect width="16" height="16" fill="white"/>
</clipPath>
</defs>
</svg>

<svg xmlns="http://www.w3.org/2000/svg" width="100%" height="100%" viewBox="0 0 16 16" fill="none"><g clip-path="url(#a)"><path fill="#333" d="M11 10.293 14.793 6.5 11 2.707V4.5a.5.5 0 0 1-.5.5h-3a.5.5 0 0 1 0-1H10V1.5a.5.5 0 0 1 .854-.354l5 5a.5.5 0 0 1 0 .708l-5 5A.498.498 0 0 1 10 11.5V8H5.5a.5.5 0 0 1-.5-.5V5.707L1.207 9.5 5 13.293V11.5a.5.5 0 0 1 .5-.5h3a.5.5 0 0 1 0 1H6v2.5a.5.5 0 0 1-.854.354l-5-5a.5.5 0 0 1 0-.708l5-5A.5.5 0 0 1 6 4.5V7h4.5a.5.5 0 0 1 .5.5v2.793Z"/></g><defs><clipPath id="a"><path fill="#fff" d="M0 0h16v16H0z"/></clipPath></defs></svg>
